X:1
T:Title
%%score { 1 | ( 2 3 ) }
L:1/8
M:4/4
K:Bb
V:1 treble nm="Grand Piano"
V:2 bass 
V:3 bass 
V:1
 z4 z2[Q:1/4=100] [B,D][CE] | [DF]2 [DF]2 [Fd]2 [Fc][FB] | [Gc]2 [B,GB]2 [B,EG]4 | %3
 [B,DF]3 [DFB] [DFB][DFB][CFA][B,FB] |[M:3/4] c3 d c2 |[M:1/4] D[CE] | %6
[M:4/4] [DF]2 [DF]2 [Fd]2 [Fc][FB] | c2 B2 G4 | F3 B BBAB | c4 [DB]2 z2 | c3 c BAGA | [DB]4 [DF]4 | %12
 e3 e edcB | d4 c4 | [Fd]2 [DB]2 [DF][DF][B,D][DF] | G4 B4 | F3 B BBAB |[M:3/4] c4 [DB]2 |] %18
V:2
 z4 z2 [B,,F,][B,,F,] | [B,,B,]2 [B,,B,]2 [B,,B,]2 [C,A,][D,B,] | [E,B,]2 E,2 E,4 | %3
 B,,3 B,, B,,B,,C,D, |[M:3/4] [F,F]3- [F,B,F] [F,A,F]2 |[M:1/4] [B,,F,B,][B,,F,] | %6
[M:4/4] [B,,B,]2 [B,,B,]2 [B,,B,]2 [C,A,][D,B,] | [E,G,E]2 [E,G,E]2 [E,B,E]4 | %8
 [F,B,D]3 [F,DF] [F,DF][F,DF][F,CE][F,B,D] | [F,A,E]4 [B,,B,]2 z2 | %10
 [F,EF]3 [F,EF] [F,DF][F,CF][F,B,E][F,E] | [B,,F,]4 [B,,B,]4 | %12
 [F,A,F]3 [F,A,F] [F,A,F][F,B,F][F,EF][F,DF] | [F,B,F]4 [F,A,F]4 | %14
 [B,,B,]2 [B,,F,]2 [B,,B,][B,,B,][B,,F,][B,,B,] | [E,B,E]4 [G,E]4 | %16
 [F,B,D]3 [F,DF] [F,DF][F,DF][F,CE][F,B,D] |[M:3/4] [F,A,E]4 [B,,B,]2 |] %18
V:3
 x8 | x8 | x8 | x8 |[M:3/4] A,4 z2 |[M:1/4] x2 |[M:4/4] x8 | x8 | x8 | x8 | x8 | x8 | x8 | x8 | %14
 x8 | x8 | x8 |[M:3/4] x6 |] %18

